X: 4206
T: Bluebell Polka, The
R: barndance
M: 4/4
K: Gmajor
|:b2b2 gfge|d2d2 B4|F2A2 c2e2-|ed^cd B4|
b2b2 gfge|d2d2 B4|FGAB cdef|g2g2 g4:|
K:Dmaj|:A2A2 FAdf|a2a2 f4|a2(3^gag =g2e2|b2a2 f3d|
A2A2 Adfa|a2a2 f4|a2^g2g2e2|1 b2a2^g2a2|2 d2f2d4:|

